src/assets/images/works/zefirent/ZefirentLogo.svg

<svg width="140" height="48" viewBox="0 0 140 48" fill="none" xmlns="http://www.w3.org/2000/svg">
<path d="M129.863 48.0003L135.918 31.4824H115.216L109.242 48.0003H129.863Z" fill="#E1251B"/>
<path d="M104.087 48.0003L110.06 31.4824H94.5944L88.5391 48.0003H104.087Z" fill="currentColor"/>
<path d="M83.3846 48.0003L89.44 31.4824H79.1295L73.0742 48.0003H83.3846Z" fill="currentColor"/>
<path d="M67.9189 48.0003L73.9743 31.4824H68.819L62.7637 48.0003H67.9189Z" fill="currentColor"/>
<path d="M0 24.2049L10.8833 6.54218H0.490974L2.45487 1.06348H18.9025V3.84372L7.93741 21.5064H19.4753L17.4296 26.9033H0V24.2049Z" fill="#E1251B"/>
<path d="M41.0784 18.8891H27.0038C27.4948 21.0152 29.0496 22.4871 31.4226 22.4871C32.8137 22.4871 34.2866 21.9147 35.0231 20.6881L40.342 21.6694C39.1145 24.9402 35.9232 27.4752 31.3408 27.4752C25.8582 27.4752 21.4395 22.9777 21.4395 17.2537C21.4395 11.4479 25.8582 7.03223 31.5044 7.03223C37.1506 7.03223 41.3239 11.3661 41.3239 17.1719C41.2421 17.9079 41.1602 18.3985 41.0784 18.8891ZM35.9232 15.2912C35.2686 13.2469 33.7138 11.8568 31.5044 11.8568C29.7042 11.8568 27.7403 12.9198 27.1675 15.2912H35.9232Z" fill="#E1251B"/>
<path d="M55.972 12.7564H51.4714V26.9029H45.9888V12.7564H43.043V8.01363H46.0706V5.88756C46.1525 1.55366 49.0983 0 53.2716 0C53.9262 0 55.0718 0.0817717 56.4629 0.327087L55.8901 4.9063C54.99 4.74276 54.2535 4.74276 53.7626 4.74276C51.7987 4.74276 51.3895 6.13288 51.3895 7.60477V8.17717H55.972V12.7564Z" fill="#E1251B"/>
<path d="M64.2364 7.52319H58.7539V26.9849H64.2364V7.52319Z" fill="#E1251B"/>
<path d="M58.7539 0.0820312V1.06329V4.98833H64.2364V0.0820312H58.7539Z" fill="#E1251B"/>
<path d="M74.0548 14.6369C74.0548 13.6556 74.8731 12.9197 75.7732 12.9197H79.21L81.1739 7.60449H74.3003C71.109 7.60449 68.5723 10.1394 68.5723 13.3285V26.9844H74.0548V14.6369Z" fill="#E1251B"/>
<path d="M101.387 18.8891H87.3124C87.8034 21.0152 89.3581 22.4871 91.7312 22.4871C93.1223 22.4871 94.5952 21.9147 95.3317 20.6881L100.651 21.6694C99.4231 24.9402 96.2318 27.4752 91.6494 27.4752C86.1668 27.4752 81.748 22.9777 81.748 17.2537C81.748 11.4479 86.1668 7.03223 91.813 7.03223C97.4592 7.03223 101.632 11.3661 101.632 17.1719C101.551 17.9079 101.469 18.3985 101.387 18.8891ZM96.15 15.2912C95.4953 13.2469 93.9406 11.8568 91.7312 11.8568C89.9309 11.8568 87.9671 12.9198 87.3943 15.2912H96.15Z" fill="#E1251B"/>
<path d="M123.152 15.2913V26.9028H117.669V16.2725C117.669 13.4923 116.442 12.1022 114.232 12.1022C111.778 12.1022 110.223 13.8194 110.223 16.6814V26.9028H104.74V7.52296H108.668L109.568 9.73079C110.877 8.2589 113.169 7.19587 115.705 7.19587C120.206 7.1141 123.152 10.3032 123.152 15.2913Z" fill="#E1251B"/>
<path d="M137.063 21.9961C135.345 21.9961 134.281 20.9331 134.281 19.1341V12.1835H138.946V7.44074H134.199V2.61621H128.799V7.44074H125.607V12.1017H128.799V19.87C128.799 24.3675 131.417 26.9024 135.754 26.9024C136.245 26.9024 137.391 26.9024 137.636 26.8206L139.437 21.9143H137.063V21.9961Z" fill="#E1251B"/>
</svg>

<svg width="140" height="48" viewBox="0 0 140 48" fill="none" xmlns="http://www.w3.org/2000/svg"><path d="m129.863 48 6.055-16.518h-20.702L109.242 48z" fill="#e1251b"/><path d="m104.087 48 5.973-16.518H94.594L88.54 48zm-20.702 0 6.055-16.518H79.13L73.074 48zm-15.466 0 6.055-16.518H68.82L62.764 48z" fill="currentColor"/><path d="M0 24.205 10.883 6.542H.491l1.964-5.479h16.448v2.78L7.937 21.507h11.538l-2.045 5.397H0zm41.078-5.315H27.004c.49 2.125 2.046 3.597 4.419 3.597 1.39 0 2.864-.572 3.6-1.799l5.319.981c-1.227 3.271-4.419 5.806-9.001 5.806-5.483 0-9.902-4.497-9.902-10.221 0-5.806 4.42-10.222 10.065-10.222 5.647 0 9.82 4.334 9.82 10.14-.082.736-.164 1.226-.246 1.717m-5.155-3.599c-.654-2.044-2.21-3.434-4.419-3.434-1.8 0-3.764 1.063-4.337 3.434zm20.049-2.534h-4.5v14.147h-5.483V12.756h-2.946V8.014h3.028V5.888C46.153 1.554 49.098 0 53.27 0c.655 0 1.8.082 3.192.327l-.573 4.58c-.9-.164-1.636-.164-2.127-.164-1.964 0-2.373 1.39-2.373 2.862v.572h4.582zm8.264-5.233h-5.482v19.462h5.482zM58.754.082v4.906h5.482V.082zm15.301 14.555c0-.981.818-1.717 1.718-1.717h3.437l1.964-5.316H74.3a5.69 5.69 0 0 0-5.728 5.725v13.655h5.483zm27.332 4.253H87.312c.491 2.125 2.046 3.597 4.42 3.597 1.39 0 2.863-.572 3.6-1.799l5.319.981c-1.228 3.271-4.42 5.806-9.002 5.806-5.482 0-9.901-4.497-9.901-10.221 0-5.806 4.419-10.222 10.065-10.222s9.819 4.334 9.819 10.14c-.081.736-.163 1.226-.245 1.717M96.15 15.29c-.655-2.044-2.21-3.434-4.419-3.434-1.8 0-3.764 1.063-4.337 3.434zm27.002.001v11.612h-5.483v-10.63c0-2.78-1.227-4.17-3.437-4.17-2.454 0-4.009 1.716-4.009 4.578v10.222h-5.483V7.523h3.928l.9 2.208c1.309-1.472 3.601-2.535 6.137-2.535 4.501-.082 7.447 3.107 7.447 8.095m13.911 6.705c-1.718 0-2.782-1.063-2.782-2.862v-6.95h4.665V7.44h-4.747V2.616h-5.4v4.825h-3.192v4.66h3.192v7.769c0 4.497 2.618 7.032 6.955 7.032.491 0 1.637 0 1.882-.081l1.801-4.907h-2.374z" fill="#e1251b"/></svg>
